X: 20744
M: 6/8
L: 1/8
K: G
d2B e2c | dBG g2e | age dBG | FAA ABc |\
dcB edc | dBG e2f | gfe dBG | cAF G2 :|
c2A a2f | gdB G2B | cBA agf | gBd G2d |\
edc gec | dcB gdB | cBA GEF | ADB G2 :|



